assets/illustrations/spots/letter-search-question.svg

<svg width="512" height="500" viewBox="0 0 512 500" fill="none" xmlns="http://www.w3.org/2000/svg"><path d="M474.021 157.806c-26.234-23.144-62.043-35.712-97.827-43.974a710.442 710.442 0 0 0-19.773-4.212c-23.23-4.585-44.65-14.657-62.017-29.162l-.338-.254c-18.709-15.715-34.719-34.323-56.308-47.03-15.318-8.886-32.839-14.299-51.037-15.767-18.199-1.469-36.524 1.052-53.381 7.343-33.422 13.054-58.281 42.585-61.81 74.964-4.256 38.789 20.058 77.509 11.65 115.72-10.379 47.214-70.554 89.822-71.177 137.939-.285 23.723 17.308 58.161 39.183 71.747 21.875 13.585 49.796 18.098 76.16 15.066 40.22-4.628 75.251-46.288 111.839-62.003 39.304-16.934 81.325-28.303 124.554-33.697 29.27-3.634 59.682-4.629 86.331-16.201 33.734-14.627 57.217-45.941 61.265-79.222 4.048-33.282-10.639-67.766-37.314-91.257Z" fill="#B9CBD3" style="mix-blend-mode:luminosity" opacity=".16"/><g opacity=".1" filter="url(#letter/search-question__a)"><ellipse cx="308.038" cy="455.14" rx="180.407" ry="19.415" fill="#0A0F1A"/></g><g opacity=".1" filter="url(#letter/search-question__b)"><ellipse cx="99.26" cy="475.08" rx="82.976" ry="8.92" fill="#0A0F1A"/></g><g filter="url(#letter/search-question__c)"><path d="M153.885 77.76c0-8.618 6.987-15.605 15.606-15.605h180.084l107.74 104.526V425.86c0 8.619-6.987 15.606-15.606 15.606H169.491c-8.619 0-15.606-6.987-15.606-15.606V77.76Z" fill="#fff"/></g><path d="M349.574 61.076v97.881a7.804 7.804 0 0 0 7.803 7.803h100.018L349.574 61.076Z" fill="#EEF6F9"/><path fill-rule="evenodd" clip-rule="evenodd" d="M204.227 237.802a6.826 6.826 0 0 1 6.827-6.827h191.293a6.827 6.827 0 1 1 0 13.655H211.054a6.827 6.827 0 0 1-6.827-6.828Zm-.002 58.189a6.826 6.826 0 0 1 6.827-6.827h191.293a6.827 6.827 0 1 1 0 13.655H211.052a6.827 6.827 0 0 1-6.827-6.828Zm0 58.191a6.827 6.827 0 0 1 6.827-6.828h112.137a6.828 6.828 0 0 1 0 13.655H211.052a6.826 6.826 0 0 1-6.827-6.827Z" fill="#D2DFE6"/><g filter="url(#letter/search-question__d)"><rect width="142.16" height="58.088" rx="18.015" transform="matrix(.70957 -.70463 .7187 .69532 50.543 433.357)" fill="#41B2C0"/><path fill-rule="evenodd" clip-rule="evenodd" d="M215.239 411.303c59.809 0 108.294-47.523 108.294-106.147 0-58.623-48.485-106.147-108.294-106.147s-108.294 47.524-108.294 106.147c0 58.624 48.485 106.147 108.294 106.147Zm0-44.227c34.889 0 63.172-27.722 63.172-61.919 0-34.197-28.283-61.919-63.172-61.919-34.888 0-63.171 27.722-63.171 61.919 0 34.197 28.283 61.919 63.171 61.919Z" fill="#2CC3D5"/></g><path fill-rule="evenodd" clip-rule="evenodd" d="M223.597 181.698c19.116 0 34.611-15.188 34.611-33.925 0-18.736-15.495-33.925-34.611-33.925-19.115 0-34.611 15.189-34.611 33.925 0 18.737 15.496 33.925 34.611 33.925Zm-2.834-31.209a3.27 3.27 0 0 0 .658 2.135 2.291 2.291 0 0 0 1.891.744 2.74 2.74 0 0 0 1.689-.529c.475-.376.788-.914.878-1.506a4.134 4.134 0 0 1 1.013-1.804 23.11 23.11 0 0 1 2.279-2.052 52.107 52.107 0 0 0 2.583-2.35 9.213 9.213 0 0 0 1.688-2.35 6.661 6.661 0 0 0 .659-3.012 6.525 6.525 0 0 0-1.317-3.971 8.676 8.676 0 0 0-3.613-2.748 13.144 13.144 0 0 0-5.251-.993 17.343 17.343 0 0 0-5.217.811 16.015 16.015 0 0 0-4.626 2.284c-.456.32-.836.732-1.114 1.208a3.262 3.262 0 0 0-.338 1.539 3.534 3.534 0 0 0 .794 2.334c.222.295.512.536.846.702.334.167.704.255 1.078.257a5.611 5.611 0 0 0 2.482-.844l1.081-.529c.728-.425 1.49-.79 2.279-1.092a6.032 6.032 0 0 1 2.06-.381 3.114 3.114 0 0 1 1.992.579 1.866 1.866 0 0 1 .726 1.556 3.118 3.118 0 0 1-.523 1.771 14.44 14.44 0 0 1-1.554 1.903 14.293 14.293 0 0 0-2.262 2.863 6.8 6.8 0 0 0-.861 3.475Zm-1.773 9.176c0 1.137.448 2.231 1.25 3.053.397.403.875.722 1.404.935a4.213 4.213 0 0 0 1.668.306 4.45 4.45 0 0 0 3.279-1.159 4.297 4.297 0 0 0 1.022-1.427 4.226 4.226 0 0 0 0-3.416 4.297 4.297 0 0 0-1.022-1.427 4.45 4.45 0 0 0-3.279-1.159 4.213 4.213 0 0 0-1.668.306 4.144 4.144 0 0 0-1.404.935 4.372 4.372 0 0 0-1.25 3.053Z" fill="#F9B42F"/><defs><filter id="letter/search-question__a" x="111.631" y="419.726" width="392.814" height="70.829" filterUnits="userSpaceOnUse" color-interpolation-filters="sRGB"><feFlood flood-opacity="0" result="BackgroundImageFix"/><feBlend in="SourceGraphic" in2="BackgroundImageFix" result="shape"/><feGaussianBlur stdDeviation="8" result="effect1_foregroundBlur_10272_1644"/></filter><filter id="letter/search-question__b" x=".283" y="450.16" width="197.953" height="49.84" filterUnits="userSpaceOnUse" color-interpolation-filters="sRGB"><feFlood flood-opacity="0" result="BackgroundImageFix"/><feBlend in="SourceGraphic" in2="BackgroundImageFix" result="shape"/><feGaussianBlur stdDeviation="8" result="effect1_foregroundBlur_10272_1644"/></filter><filter id="letter/search-question__c" x="141.885" y="44.155" width="327.43" height="403.312" filterUnits="userSpaceOnUse" color-interpolation-filters="sRGB"><feFlood flood-opacity="0" result="BackgroundImageFix"/><feColorMatrix in="SourceAlpha" values="0 0 0 0 0 0 0 0 0 0 0 0 0 0 0 0 0 0 127 0" result="hardAlpha"/><feOffset dy="-6"/><feGaussianBlur stdDeviation="6"/><feColorMatrix values="0 0 0 0 0.374547 0 0 0 0 0.481553 0 0 0 0 0.601935 0 0 0 0.15 0"/><feBlend in2="BackgroundImageFix" result="effect1_dropShadow_10272_1644"/><feBlend in="SourceGraphic" in2="effect1_dropShadow_10272_1644" result="shape"/></filter><filter id="letter/search-question__d" x="53.201" y="194.132" width="275.209" height="277.105" filterUnits="userSpaceOnUse" color-interpolation-filters="sRGB"><feFlood flood-opacity="0" result="BackgroundImageFix"/><feColorMatrix in="SourceAlpha" values="0 0 0 0 0 0 0 0 0 0 0 0 0 0 0 0 0 0 127 0" result="hardAlpha"/><feOffset/><feGaussianBlur stdDeviation="2.438"/><feColorMatrix values="0 0 0 0 0.374547 0 0 0 0 0.481553 0 0 0 0 0.601935 0 0 0 0.27 0"/><feBlend in2="BackgroundImageFix" result="effect1_dropShadow_10272_1644"/><feBlend in="SourceGraphic" in2="effect1_dropShadow_10272_1644" result="shape"/></filter></defs></svg>

<svg width="512" height="500" viewBox="0 0 512 500" fill="none" xmlns="http://www.w3.org/2000/svg">
<g opacity="0.1" filter="url(#filter0_f_10272_1644)">
<ellipse cx="308.038" cy="455.14" rx="180.407" ry="19.4146" fill="#0A0F1A"/>
</g>
<path d="M324.8 5.73151C206.221 -11.4288 96.1827 70.787 79.0223 189.366C61.862 307.944 144.078 417.983 262.657 435.143C381.235 452.303 491.274 370.088 508.434 251.509C525.594 132.93 443.378 22.8919 324.8 5.73151Z" fill="#B2DFFD" fill-opacity="0.5"/>
<g opacity="0.1" filter="url(#filter1_f_10272_1644)">
<ellipse cx="99.2587" cy="475.079" rx="82.9764" ry="8.92023" fill="#0A0F1A"/>
</g>
<g filter="url(#filter2_d_10272_1644)">
<path d="M153.885 77.7609C153.885 69.142 160.872 62.1549 169.491 62.1549H349.575L457.315 166.681V425.86C457.315 434.479 450.328 441.466 441.709 441.466H169.491C160.872 441.466 153.885 434.479 153.885 425.86V77.7609Z" fill="#F6F6F6"/>
</g>
<path d="M349.575 61.0764V158.957C349.575 163.266 353.069 166.76 357.378 166.76H457.396L349.575 61.0764Z" fill="#EEF6F9"/>
<path fill-rule="evenodd" clip-rule="evenodd" d="M204.227 237.802C204.227 234.031 207.283 230.975 211.054 230.975H402.347C406.118 230.975 409.175 234.031 409.175 237.802C409.175 241.573 406.118 244.63 402.347 244.63H211.054C207.283 244.63 204.227 241.573 204.227 237.802Z" fill="#B2DFFD" fill-opacity="0.5"/>
<path fill-rule="evenodd" clip-rule="evenodd" d="M204.225 295.991C204.225 292.22 207.281 289.164 211.052 289.164H402.345C406.116 289.164 409.173 292.22 409.173 295.991C409.173 299.762 406.116 302.819 402.345 302.819H211.052C207.281 302.819 204.225 299.762 204.225 295.991Z" fill="#B2DFFD" fill-opacity="0.5"/>
<path fill-rule="evenodd" clip-rule="evenodd" d="M204.225 354.182C204.225 350.411 207.281 347.354 211.052 347.354H323.189C326.96 347.354 330.017 350.411 330.017 354.182C330.017 357.953 326.96 361.009 323.189 361.009H211.052C207.281 361.009 204.225 357.953 204.225 354.182Z" fill="#B2DFFD" fill-opacity="0.5"/>
<g filter="url(#filter3_d_10272_1644)">
<rect width="142.16" height="58.0883" rx="18.0147" transform="matrix(0.709573 -0.704632 0.718696 0.695324 50.543 433.357)" fill="#125BD8"/>
<path fill-rule="evenodd" clip-rule="evenodd" d="M215.239 411.303C275.048 411.303 323.533 363.78 323.533 305.156C323.533 246.533 275.048 199.009 215.239 199.009C155.43 199.009 106.945 246.533 106.945 305.156C106.945 363.78 155.43 411.303 215.239 411.303ZM215.239 367.076C250.128 367.076 278.411 339.354 278.411 305.157C278.411 270.96 250.128 243.238 215.239 243.238C180.351 243.238 152.068 270.96 152.068 305.157C152.068 339.354 180.351 367.076 215.239 367.076Z" fill="#0096FA"/>
</g>
<path fill-rule="evenodd" clip-rule="evenodd" d="M223.596 181.698C242.712 181.698 258.207 166.509 258.207 147.773C258.207 129.037 242.712 113.848 223.596 113.848C204.481 113.848 188.985 129.037 188.985 147.773C188.985 166.509 204.481 181.698 223.596 181.698ZM220.762 150.489C220.723 151.254 220.956 152.008 221.42 152.624C221.654 152.884 221.947 153.087 222.275 153.216C222.604 153.346 222.959 153.398 223.311 153.368C223.919 153.383 224.514 153.196 225 152.839C225.475 152.463 225.788 151.925 225.878 151.333C226.056 150.658 226.404 150.038 226.891 149.529C227.603 148.796 228.365 148.111 229.17 147.477C230.234 146.567 231.095 145.772 231.753 145.127C232.438 144.435 233.007 143.642 233.441 142.777C233.894 141.836 234.119 140.805 234.1 139.765C234.11 138.337 233.648 136.943 232.783 135.793C231.85 134.578 230.603 133.63 229.17 133.046C227.51 132.36 225.721 132.021 223.919 132.053C222.148 132.056 220.387 132.329 218.702 132.864C217.043 133.372 215.48 134.144 214.076 135.148C213.62 135.468 213.24 135.88 212.962 136.356C212.725 136.835 212.609 137.363 212.624 137.895C212.599 138.74 212.88 139.567 213.418 140.229C213.64 140.524 213.93 140.765 214.264 140.931C214.598 141.098 214.968 141.186 215.342 141.188C216.227 141.106 217.078 140.816 217.824 140.344L218.905 139.815C219.633 139.39 220.395 139.025 221.184 138.723C221.842 138.477 222.54 138.348 223.244 138.342C223.956 138.302 224.661 138.507 225.236 138.921C225.475 139.105 225.665 139.342 225.791 139.613C225.917 139.883 225.976 140.18 225.962 140.477C225.971 141.105 225.789 141.721 225.439 142.247C224.977 142.924 224.458 143.561 223.885 144.151C223.01 145.007 222.25 145.969 221.623 147.014C221.03 148.078 220.733 149.276 220.762 150.489ZM218.989 159.665C218.989 160.802 219.437 161.896 220.239 162.718C220.636 163.121 221.114 163.44 221.643 163.653C222.172 163.867 222.74 163.971 223.311 163.959C223.91 163.996 224.509 163.912 225.073 163.712C225.637 163.513 226.153 163.203 226.59 162.8C227.026 162.398 227.375 161.912 227.612 161.373C227.85 160.834 227.973 160.253 227.973 159.665C227.973 159.078 227.85 158.496 227.612 157.957C227.375 157.418 227.026 156.932 226.59 156.53C226.153 156.127 225.637 155.817 225.073 155.618C224.509 155.418 223.91 155.334 223.311 155.371C222.74 155.359 222.172 155.463 221.643 155.677C221.114 155.89 220.636 156.209 220.239 156.612C219.437 157.434 218.989 158.528 218.989 159.665Z" fill="#0096FA"/>
<defs>
<filter id="filter0_f_10272_1644" x="111.631" y="419.725" width="392.813" height="70.8292" filterUnits="userSpaceOnUse" color-interpolation-filters="sRGB">
<feFlood flood-opacity="0" result="BackgroundImageFix"/>
<feBlend mode="normal" in="SourceGraphic" in2="BackgroundImageFix" result="shape"/>
<feGaussianBlur stdDeviation="8" result="effect1_foregroundBlur_10272_1644"/>
</filter>
<filter id="filter1_f_10272_1644" x="0.282227" y="450.159" width="197.953" height="49.8405" filterUnits="userSpaceOnUse" color-interpolation-filters="sRGB">
<feFlood flood-opacity="0" result="BackgroundImageFix"/>
<feBlend mode="normal" in="SourceGraphic" in2="BackgroundImageFix" result="shape"/>
<feGaussianBlur stdDeviation="8" result="effect1_foregroundBlur_10272_1644"/>
</filter>
<filter id="filter2_d_10272_1644" x="141.885" y="44.1549" width="327.43" height="403.312" filterUnits="userSpaceOnUse" color-interpolation-filters="sRGB">
<feFlood flood-opacity="0" result="BackgroundImageFix"/>
<feColorMatrix in="SourceAlpha" type="matrix" values="0 0 0 0 0 0 0 0 0 0 0 0 0 0 0 0 0 0 127 0" result="hardAlpha"/>
<feOffset dy="-6"/>
<feGaussianBlur stdDeviation="6"/>
<feColorMatrix type="matrix" values="0 0 0 0 0.374547 0 0 0 0 0.481553 0 0 0 0 0.601935 0 0 0 0.15 0"/>
<feBlend mode="normal" in2="BackgroundImageFix" result="effect1_dropShadow_10272_1644"/>
<feBlend mode="normal" in="SourceGraphic" in2="effect1_dropShadow_10272_1644" result="shape"/>
</filter>
<filter id="filter3_d_10272_1644" x="53.2022" y="194.132" width="275.208" height="277.105" filterUnits="userSpaceOnUse" color-interpolation-filters="sRGB">
<feFlood flood-opacity="0" result="BackgroundImageFix"/>
<feColorMatrix in="SourceAlpha" type="matrix" values="0 0 0 0 0 0 0 0 0 0 0 0 0 0 0 0 0 0 127 0" result="hardAlpha"/>
<feOffset/>
<feGaussianBlur stdDeviation="2.43843"/>
<feColorMatrix type="matrix" values="0 0 0 0 0.374547 0 0 0 0 0.481553 0 0 0 0 0.601935 0 0 0 0.27 0"/>
<feBlend mode="normal" in2="BackgroundImageFix" result="effect1_dropShadow_10272_1644"/>
<feBlend mode="normal" in="SourceGraphic" in2="effect1_dropShadow_10272_1644" result="shape"/>
</filter>
</defs>
</svg>
